X: 23344
T: Leitrim
R: jig
M: 6/8
K: Gmajor
AGF G3|AEF G3|dBG GFG|AEF FGA|
AGF GFG|AGF GFG|fdd edd|fdd cAF:|
|:GBd gfg|f/g/ag fga|g3 fgg|a2 g fga|
bag agf|gfe e2 e|d2d d2e|fed cAF:|

